X:1
T:Come Back Paddy Reilly to Ballyjamesduff
M:3/4
L:1/4
K:F
 c| c2 d/2c/2| A G F| D/2 F3/2 D| C2 C| F F3/2 F/2| G F G| A3-| A z C|\
 c2 d/2c/2| A G F| D F D| C2 C| F F F| G F G| F3-| F| z F| d d d| d B d|\
 d c A| c2 A| A G G| d d =B| c3-| c2 c/2c/2| c2 d/2c/2| A G F| D/2 F3/2 D|\
 C2 A/2A/2| A G F| G3/2 F/2 G| F3-| F z F| d2 d/2d/2| d B d| d c A|\
 c2 A| A3/2 G/2 G| d d =B| c3-| c2 c| c2 d/2c/2| A G F| D/2 F3/2 D|\
 C2 A| A2 G/2F/2| G F G| F3-| F z||
